X:1
T:J. Tilleard
T:Kensington New
%%score { ( 1 2 ) | ( 3 4 ) }
L:1/8
Q:1/4=184
M:4/2
K:Eb
V:1 treble 
V:2 treble 
V:3 bass 
V:4 bass 
V:1
"^Presto" B,4 E4 G6 F2 | E4 G4 B4 A4 | G4 G4 F4 C4 | E4 F4 E8 | E4 G4 c6 B2 | =A4 c4 e4 d4 | %6
 c4 G4 B4 =A4 | d4 c4 B8 | e6 B2 d4 c4 | B6 F2 A4 G4 | F6 C2 E4 D4 | G4 F4 E8 | E8 E8 |] %13
V:2
 B,4 B,4 D6 D2 | E4 E4 F4 F4 | E4 D4 C4 C4 | B,4 D4 E8 | B,4 E4 G6 G2 | F4 =A4 A4 B4 | %6
 E4 E4 F4 F4 | F6 E2 D8 | E6 B2 B4 A4 | F6 F2 F4 E4 | C6 C2 B,4 B,4 | D4 D4 E8 | C8 B,8 |] %13
V:3
 G,4 G,4 B,6 A,2 | G,4 C4 B,4 B,4 | B,4 B,4 C4 F,4 | G,4 A,4 G,8 | G,4 B,4 E6 D2 | C4 C4 C4 B,4 | %6
 G,4 C4 C4 C4 | =A,4 A,4 B,8 | B,6 E2 E4 E4 | D6 D2 B,4 B,4 | A,6 F,2 F,4 F,4 | B,4 A,4 G,8 | %12
 A,8 G,8 |] %13
V:4
 E,4 E,4 B,,6 B,,2 | C,4 C,4 D,4 D,4 | E,4 G,,4 A,,4 A,,4 | B,,4 B,,4 E,8 | E,4 E,4 C,6 C,2 | %5
 F,4 F,4 F,4 G,4 | C,4 C,4 F,4 F,4 | F,4 F,4 B,,8 | G,6 G,2 A,4 A,4 | B,6 B,2 E,4 E,4 | %10
 A,,6 A,,2 B,,4 B,,4 | B,,4 B,,4 E,8 | A,,8 E,8 |] %13

